images/menu.svg

<svg xmlns="http://www.w3.org/2000/svg" width="24" height="24" viewBox="0 0 24 24">
    <path d="M0 0h24v24h-24z" fill="none"/>
    <path d="M3 18h18v-2h-18v2zm0-5h18v-2h-18v2zm0-7v2h18v-2h-18z" fill="#fff"/>
</svg>

<?xml version="1.0" encoding="UTF-8" standalone="no"?>
<!DOCTYPE svg PUBLIC "-//W3C//DTD SVG 1.1//EN" "http://www.w3.org/Graphics/SVG/1.1/DTD/svg11.dtd">
<svg width="100%" height="100%" viewBox="0 0 24 24" version="1.1" xmlns="http://www.w3.org/2000/svg" xmlns:xlink="http://www.w3.org/1999/xlink" xml:space="preserve" style="fill-rule:evenodd;clip-rule:evenodd;stroke-linejoin:round;stroke-miterlimit:1.41421;">
    <path d="M0,0L24,0L24,24L0,24L0,0Z" style="fill:none;"/>
    <path d="M3,18L21,18L21,16L3,16L3,18ZM3,13L21,13L21,11L3,11L3,13ZM3,6L3,8L21,8L21,6L3,6Z" style="fill:rgb(51,51,51);fill-rule:nonzero;"/>
</svg>
